X: 1
T: Tail Toddle Reel v.2
C: E.MacColl
R: reel
Z: 2014 John Chambers <jc:trillian.mit.edu>
S: page in Concord Slow Scottish Session collection
N: "Burns Tunes  SRSNH  1/93  5.14" at top
B: the Sinkler Manuscript of (1710) untitled
B: the George Skene Manusript 1717-c.1740, as "Lasses Gar Your Tails Toddle"
B: the Drummond Castle Manuscript (1734)
B: Aird (1785)
B: BSFC Session Tune Book 2016 p.48
S: Barbara McOwen
M: C|
L: 1/8
K: D
A2 |:\
"D"d2fd "G"g2fe | "D"d/d/d fd "A7"e2cA | "D"d2fd "G"g2fe | "D"f/g/a gf "A7"e2cA :|
"G"g2dB B2dB | "G"g2dB "A"e2cA | "G"g2dB B2dB | "D"A/A/A af "A"e2cA ||
"G"g2dB B2dB | "G"g2dB "A"e2cA | "G"g2dB g2dB | "D"A/A/A af "A"e2cA |]
